icons/2_Variations/Notion bg.var.svg

<svg width="1024" height="1024" viewBox="0 0 1024 1024" fill="none" xmlns="http://www.w3.org/2000/svg">
<g clip-path="url(#clip0_3_197)">
<path d="M512 1024C794.77 1024 1024 794.77 1024 512C1024 229.23 794.77 0 512 0C229.23 0 0 229.23 0 512C0 794.77 229.23 1024 512 1024Z" fill="#FF837D"/>
<path d="M579.67 262.389L302.17 282.879C279.79 284.819 272 299.449 272 316.979V621.189C272 634.849 276.85 646.529 288.55 662.149L353.78 746.969C364.5 760.629 374.24 763.549 394.7 762.579L716.95 743.069C744.2 741.129 752 728.439 752 706.999V364.759C752 353.679 747.62 350.479 734.73 341.019C733.99 340.489 733.25 339.949 732.51 339.419L643.95 277.019C622.52 261.439 613.76 259.469 579.67 262.389ZM401.99 359.159C375.68 360.929 369.71 361.329 354.77 349.179L316.77 318.959C312.91 315.049 314.85 310.169 324.58 309.199L591.34 289.709C613.74 287.749 625.41 295.559 634.17 302.379L679.92 335.529C681.88 336.519 686.74 342.349 680.89 342.349L405.4 358.929L401.99 359.159ZM371.32 704.069V413.539C371.32 400.849 375.21 394.999 386.88 394.019L703.29 375.499C714.02 374.529 718.87 381.349 718.87 394.019V682.619C718.87 695.309 716.91 706.039 699.4 707.009L396.61 724.559C379.09 725.529 371.32 719.699 371.32 704.079V704.069ZM670.21 429.119C672.15 437.899 670.21 446.669 661.43 447.679L646.84 450.569V665.079C634.17 671.899 622.5 675.799 612.75 675.799C597.17 675.799 593.28 670.919 581.61 656.309L486.18 506.159V651.429L516.37 658.269C516.37 658.269 516.37 675.819 492.01 675.819L424.86 679.709C422.9 675.799 424.86 666.049 431.66 664.109L449.2 659.249V467.179L424.86 465.209C422.9 456.429 427.77 443.759 441.41 442.779L513.46 437.929L612.76 590.019V455.469L587.45 452.559C585.49 441.809 593.28 433.999 603.01 433.049L670.21 429.139V429.119Z" fill="white"/>
</g>
<defs>
<clipPath id="clip0_3_197">
<rect width="1024" height="1024" fill="white"/>
</clipPath>
</defs>
</svg>

<svg width="1024" height="1024" fill="none" xmlns="http://www.w3.org/2000/svg"><g clip-path="url(#a)"><path d="M512 1024c282.77 0 512-229.23 512-512S794.77 0 512 0 0 229.23 0 512s229.23 512 512 512Z" fill="#FF837D"/><path d="m579.67 262.389-277.5 20.49c-22.38 1.94-30.17 16.57-30.17 34.1v304.21c0 13.66 4.85 25.34 16.55 40.96l65.23 84.82c10.72 13.66 20.46 16.58 40.92 15.61l322.25-19.51c27.25-1.94 35.05-14.63 35.05-36.07v-342.24c0-11.08-4.38-14.28-17.27-23.74-.74-.53-1.48-1.07-2.22-1.6l-88.56-62.4c-21.43-15.58-30.19-17.55-64.28-14.63Zm-177.68 96.77c-26.31 1.77-32.28 2.17-47.22-9.98l-38-30.22c-3.86-3.91-1.92-8.79 7.81-9.76l266.76-19.49c22.4-1.96 34.07 5.85 42.83 12.67l45.75 33.15c1.96.99 6.82 6.82.97 6.82l-275.49 16.58-3.41.23Zm-30.67 344.91v-290.53c0-12.69 3.89-18.54 15.56-19.52l316.41-18.52c10.73-.97 15.58 5.85 15.58 18.52v288.6c0 12.69-1.96 23.42-19.47 24.39l-302.79 17.55c-17.52.97-25.29-4.86-25.29-20.48v-.01Zm298.89-274.95c1.94 8.78 0 17.55-8.78 18.56l-14.59 2.89v214.51c-12.67 6.82-24.34 10.72-34.09 10.72-15.58 0-19.47-4.88-31.14-19.49l-95.43-150.15v145.27l30.19 6.84s0 17.55-24.36 17.55l-67.15 3.89c-1.96-3.91 0-13.66 6.8-15.6l17.54-4.86v-192.07l-24.34-1.97c-1.96-8.78 2.91-21.45 16.55-22.43l72.05-4.85 99.3 152.09v-134.55l-25.31-2.91c-1.96-10.75 5.83-18.56 15.56-19.51l67.2-3.91v-.02Z" fill="#fff"/></g><defs><clipPath id="a"><path fill="#fff" d="M0 0h1024v1024H0z"/></clipPath></defs></svg>
